static/Icons/money.svg

<svg fill="none" height="24" viewBox="0 0 24 24" width="24" xmlns="http://www.w3.org/2000/svg"><g fill="#292d32"><path d="m17 20.5h-10c-3 0-5-1.5-5-5v-7c0-3.5 2-5 5-5h10c3 0 5 1.5 5 5v7c0 3.5-2 5-5 5z" opacity=".4"/><path d="m12 15c1.6569 0 3-1.3431 3-3s-1.3431-3-3-3-3 1.3431-3 3 1.3431 3 3 3z"/><path d="m5.5 15.25c-.41 0-.75-.34-.75-.75v-5c0-.41.34-.75.75-.75s.75.34.75.75v5c0 .41-.34.75-.75.75z"/><path d="m18.5 15.25c-.41 0-.75-.34-.75-.75v-5c0-.41.34-.75.75-.75s.75.34.75.75v5c0 .41-.34.75-.75.75z"/></g></svg>

<svg width="24" height="24" viewBox="0 0 24 24" fill="none" xmlns="http://www.w3.org/2000/svg">
<path opacity="0.4" d="M17 20.5H7C4 20.5 2 19 2 15.5V8.5C2 5 4 3.5 7 3.5H17C20 3.5 22 5 22 8.5V15.5C22 19 20 20.5 17 20.5Z" fill="#292D32"/>
<path d="M12 15C13.6569 15 15 13.6569 15 12C15 10.3431 13.6569 9 12 9C10.3431 9 9 10.3431 9 12C9 13.6569 10.3431 15 12 15Z" fill="#292D32"/>
<path d="M5.5 15.25C5.09 15.25 4.75 14.91 4.75 14.5V9.5C4.75 9.09 5.09 8.75 5.5 8.75C5.91 8.75 6.25 9.09 6.25 9.5V14.5C6.25 14.91 5.91 15.25 5.5 15.25Z" fill="#292D32"/>
<path d="M18.5 15.25C18.09 15.25 17.75 14.91 17.75 14.5V9.5C17.75 9.09 18.09 8.75 18.5 8.75C18.91 8.75 19.25 9.09 19.25 9.5V14.5C19.25 14.91 18.91 15.25 18.5 15.25Z" fill="#292D32"/>
</svg>
